icons/brand/icon_bank-uralskiy_m_white.svg

<svg xmlns="http://www.w3.org/2000/svg" width="22" height="16" viewBox="0 0 22 16"><g fill="#FFF"><path d="M.415 9.29a6.326 6.326 0 0 0 2.654 2.728c-.295-.516-.516-1.106-.516-1.77V3.023c-.959.221-1.696.885-2.138 1.696V9.29z"/><path d="M.415 3.982c.516-1.106 1.696-1.843 3.023-1.843h2.138c.59 0 1.106-.516 1.106-1.106C6.682.442 6.166 0 5.576 0H3.438A2.99 2.99 0 0 0 .415 3.023v.959zM6.313 16c3.244 0 5.899-2.581 5.899-5.751V2.138h3.539c1.548 0 3.097.664 4.276 1.696C19.585 1.622 17.742 0 15.456 0H10v10.249c0 1.991-1.696 3.613-3.687 3.613-2.359 0-4.719-1.327-5.899-3.539C.488 13.419 3.069 16 6.313 16z"/><path d="M17.742 7.447c.958.516 1.622 1.475 1.696 2.507a3.728 3.728 0 0 1-.516 2.286c1.18-.59 2.138-1.548 2.654-2.654-.147-1.18-.664-2.286-1.77-3.318.221-.59.295-1.327.295-1.696-.664-.59-1.622-1.18-2.654-1.475.295.369.516 1.032.516 1.548s-.147.959-.442 1.475c-.295.442-.295 1.032.221 1.327z"/><path d="M21.65 10.396c-.737 1.917-2.728 3.392-5.383 3.392h-3.465c-.59 0-1.106.516-1.106 1.106 0 .59.516 1.106 1.106 1.106h3.465c2.95 0 5.456-2.507 5.383-5.604z"/></g></svg>

<?xml version="1.0" encoding="UTF-8"?>
<svg width="24px" height="24px" viewBox="0 0 24 24" version="1.1" xmlns="http://www.w3.org/2000/svg" xmlns:xlink="http://www.w3.org/1999/xlink">
    <!-- Generator: Sketch 49.1 (51147) - http://www.bohemiancoding.com/sketch -->
    <title>icon_bank-uralskiy_m_white</title>
    <desc>Created with Sketch.</desc>
    <defs></defs>
    <g id="page" stroke="none" stroke-width="1" fill="none" fill-rule="evenodd">
        <g id="uralsib" transform="translate(-4.000000, -54.000000)">
            <g id="icon_bank-uralskiy_m_white" transform="translate(4.000000, 54.000000)">
                <rect id="Rectangle" x="0" y="0" width="24" height="24"></rect>
                <g id="Group" transform="translate(1.000000, 4.000000)" fill="#FFFFFF" fill-rule="nonzero">
                    <path d="M3.07,12.018 C2.774,11.502 2.553,10.912 2.553,10.248 L2.553,3.023 C1.593,3.243 0.857,3.908 0.415,4.719 L0.415,9.289 C0.998,10.449 1.925,11.402 3.069,12.017" id="Shape"></path>
                    <path d="M3.438,2.138 L5.576,2.138 C6.166,2.138 6.682,1.622 6.682,1.032 C6.682,0.442 6.166,5.27895327e-15 5.576,5.27895327e-15 L3.438,5.27895327e-15 C2.634,-0.01 1.858,0.307 1.291,0.876 C0.723,1.444 0.407,2.219 0.416,3.023 L0.416,3.983 C0.93,2.875 2.11,2.137 3.438,2.137" id="Shape"></path>
                    <path d="M10,0 L10,10.25 C10,12.24 8.304,13.862 6.313,13.862 C3.953,13.862 1.593,12.535 0.413,10.322 C0.49,13.42 3.07,16 6.314,16 C9.558,16 12.214,13.42 12.214,10.25 L12.214,2.137 L10,0 Z" id="Shape"></path>
                    <path d="M15.456,0 L10,0 L12.212,2.138 L15.752,2.138 C17.299,2.138 18.848,2.802 20.028,3.834 C19.585,1.622 17.742,0 15.456,0 Z" id="Shape"></path>
                    <path d="M19.806,6.267 C20.026,5.677 20.101,4.94 20.101,4.571 C19.438,3.981 18.481,3.391 17.448,3.097 C17.743,3.467 17.964,4.129 17.964,4.645 C17.964,5.161 17.817,5.605 17.522,6.12 C17.228,6.56 17.228,7.15 17.744,7.446 C18.704,7.962 19.366,8.921 19.44,9.953 C19.518,10.751 19.337,11.553 18.924,12.239 C20.104,11.649 21.062,10.689 21.578,9.584 C21.431,8.404 20.914,7.299 19.808,6.266" id="Shape"></path>
                    <path d="M16.267,13.788 L12.802,13.788 C12.212,13.788 11.696,14.304 11.696,14.894 C11.696,15.484 12.212,16 12.802,16 L16.267,16 C19.217,16 21.723,13.493 21.649,10.396 C20.911,12.313 18.921,13.788 16.266,13.788" id="Shape"></path>
                </g>
            </g>
        </g>
    </g>
</svg>
